public/uploads/icons/icons8-logic-pro-x-outline.svg

<svg height="800" viewBox="0 0 50 50" width="800"><path d="m7 3a1.0001 1.0001 0 0 0 -1 1v12.599609 18.900391 10.5a1.0001 1.0001 0 0 0 1 1h9.900391 16.199218 9.900391a1.0001 1.0001 0 0 0 1-1v-10.5-18.900391-12.599609a1.0001 1.0001 0 0 0 -1-1h-9.900391-16.199218zm1 2h8.900391 16.199218 8.900391v11.599609 18.900391 9.5h-8.900391-16.199218-8.900391v-9.5-18.900391zm17 3c-7.167857 0-13 5.832143-13 13s5.832143 13 13 13 13-5.832143 13-13-5.832143-13-13-13zm0 2c6.086977 0 11 4.913023 11 11s-4.913023 11-11 11-11-4.913023-11-11 4.913023-11 11-11zm0 3c-4.406433 0-8 3.593567-8 8s3.593567 8 8 8 8-3.593567 8-8-3.593567-8-8-8zm0 2c3.325553 0 6 2.674447 6 6s-2.674447 6-6 6-6-2.674447-6-6 2.674447-6 6-6zm0 4a2 2 0 0 0 -2 2 2 2 0 0 0 2 2 2 2 0 0 0 2-2 2 2 0 0 0 -2-2zm-7 18a1.0001 1.0001 0 0 0 -1 1v1.199219 1.800781 1a1.0001 1.0001 0 0 0 1 1h3.849609 6.300782 3.849609a1.0001 1.0001 0 0 0 1-1v-1-1.800781-1.199219a1.0001 1.0001 0 0 0 -1-1h-3.849609-6.300782zm1 2h2.849609 6.300782 2.849609v.199219 1.800781h-2.849609-6.300782-2.849609v-1.800781z"/></svg>

<?xml version="1.0" standalone="no"?>
<svg width="800" height="800" viewBox="0 0 50 50">
<g style="fill:black;fill-opacity:1;stroke:none;stroke-width:1;stroke-opacity:0;fill-rule:nonzero;">
<g style="">
  <path d="M 7 3 A 1.0001 1.0001 0 0 0 6 4 L 6 16.599609 L 6 35.5 L 6 46 A 1.0001 1.0001 0 0 0 7 47 L 16.900391 47 L 33.099609 47 L 43 47 A 1.0001 1.0001 0 0 0 44 46 L 44 35.5 L 44 16.599609 L 44 4 A 1.0001 1.0001 0 0 0 43 3 L 33.099609 3 L 16.900391 3 L 7 3 z M 8 5 L 16.900391 5 L 33.099609 5 L 42 5 L 42 16.599609 L 42 35.5 L 42 45 L 33.099609 45 L 16.900391 45 L 8 45 L 8 35.5 L 8 16.599609 L 8 5 z M 25 8 C 17.832143 8 12 13.832143 12 21 C 12 28.167857 17.832143 34 25 34 C 32.167857 34 38 28.167857 38 21 C 38 13.832143 32.167857 8 25 8 z M 25 10 C 31.086977 10 36 14.913023 36 21 C 36 27.086977 31.086977 32 25 32 C 18.913023 32 14 27.086977 14 21 C 14 14.913023 18.913023 10 25 10 z M 25 13 C 20.593567 13 17 16.593567 17 21 C 17 25.406433 20.593567 29 25 29 C 29.406433 29 33 25.406433 33 21 C 33 16.593567 29.406433 13 25 13 z M 25 15 C 28.325553 15 31 17.674447 31 21 C 31 24.325553 28.325553 27 25 27 C 21.674447 27 19 24.325553 19 21 C 19 17.674447 21.674447 15 25 15 z M 25 19 A 2 2 0 0 0 23 21 A 2 2 0 0 0 25 23 A 2 2 0 0 0 27 21 A 2 2 0 0 0 25 19 z M 18 37 A 1.0001 1.0001 0 0 0 17 38 L 17 39.199219 L 17 41 L 17 42 A 1.0001 1.0001 0 0 0 18 43 L 21.849609 43 L 28.150391 43 L 32 43 A 1.0001 1.0001 0 0 0 33 42 L 33 41 L 33 39.199219 L 33 38 A 1.0001 1.0001 0 0 0 32 37 L 28.150391 37 L 21.849609 37 L 18 37 z M 19 39 L 21.849609 39 L 28.150391 39 L 31 39 L 31 39.199219 L 31 41 L 28.150391 41 L 21.849609 41 L 19 41 L 19 39.199219 L 19 39 z"/>
</g>
</g>
</svg>
